X:1
T:Just for Today
T:Just for Today
T:Victor H. Benke
T:Eben Eugene Rexford, 1900
T:Public Domain Courtesy of the Cyber Hymnal™
C:Victor H. Benke
Z:Public Domain
Z:Courtesy of the Cyber Hymnal™
%%score ( 1 2 ) ( 3 4 )
L:1/8
Q:1/4=130
M:3/4
K:Eb
V:1 treble 
V:2 treble 
V:3 bass 
V:4 bass 
V:1
 [EG]2 E2 [DF]2 | [EG]4 [GB]2 | [^Fd]4 [Fc]2 | [GB]4 z2 | [B,E]2 [EA]2 [EG]2 | [Ec]4 [EA]2 | %6
w: 1.~My Fa- ther,|this I|ask of|Thee;|Know- ing that|Thou wilt|
w: 2.~I do not|ask a|lift- ed|load,|Nor for a|smooth and|
w: 3.~Strength for the|pre- sent|hour and|need—|This giv- en,|then I’m|
w: 4.~Strength for to-|day, that|I may|make|Some sad souls|glad, for|
 [DF]4 [^C=E]2 | [DF]6 | [EG]2 E2 [DF]2 | [EG]4 [EB]2 | [F=B]4 [Fd]2 | [Ec]4 z2 | %12
w: grant the|plea—|For this, and|on- ly|this, I|pray|
w: thorn- less|road;|Simp- ly for|strength e-|nough to|bear|
w: blest in-|deed;|For each day,|as it|comes, will|bring|
w: Je- sus’|sake;|Then they, with|me, at|eve shall|say,|
 [^Fe]2 [Fd]2 [Fc]2 | [GB]4 [CE]2 | [DG]4 [DF]2 | E6 ||"^Refrain" [DF]2 [DG]2 [DA]2 | [EB]4 [EG]2 | %18
w: Strength for to-|day— just|for to-|day.|||
w: Life’s dai- ly|bur- dens|an- y-|where.|Strength for each|tri- al|
w: Suf- fi- cient|strength for|an- y-|thing.|||
w: “Thank God for|strength He|gave to-|day.”|||
 [DG]4 [DF]2 | [EB]4 z2 | [E=A]2 [Ac]2 [Ae]2 | [=Ad]4 [Ac]2 | A4 [Ac]2 | [GB]6 | %24
w: ||||||
w: and each|task,|What more, my|Fa- ther,|should I|ask?|
w: ||||||
w: ||||||
 [GB]2 [^Fd]2 [Fc]2 | [GB]4 [EG]2 | (G2 B2) [EA]2 | [EG]4 z2 | [EF]2 [EA]2 [Ec]2 | [EB]4 [EG]2 | %30
w: ||||||
w: Just as I|need it,|day * by|day,|Strength for my|weak- ness—|
w: ||||||
w: ||||||
 [DG]4 [DF]2 | E6 |] %32
w: ||
w: this I|pray.|
w: ||
w: ||
V:2
 x2 E2 x2 | x6 | x6 | x6 | x6 | x6 | x6 | x6 | x2 E2 x2 | x6 | x6 | x6 | x6 | x6 | x6 | E6 || x6 | %17
 x6 | x6 | x6 | x6 | x6 | A4 x2 | x6 | x6 | x6 | E4 x2 | x6 | x6 | x6 | x6 | E6 |] %32
V:3
 [E,B,]2 [E,G,]2 [E,A,]2 | [E,B,]4 [E,B,]2 | [E,=A,]4 [E,A,]2 | [E,B,]4 z2 | %4
 [E,G,]2 [E,C]2 [E,B,]2 | A,4 [F,C]2 | [B,,A,]4 [B,,G,]2 | [B,,A,]6 | [E,B,]2 [E,G,]2 [E,A,]2 | %9
 [E,B,]4 [E,G,]2 | [D,G,]4 [=B,,G,]2 | [C,G,]4 z2 | [=A,C]2 [A,D]2 [=A,,A,E]2 | [B,,B,E]4 [C,G,]2 | %14
 [B,,B,]4 [B,,A,]2 | [E,G,]6 || [B,,A,]2 [B,,G,]2 [B,,F,]2 | [B,,G,]4 [B,,B,]2 | B,4 [A,B,]2 | %19
 [G,B,]4 z2 | [F,C]2 [F,E]2 [F,C]2 | [F,F]4 [F,E]2 | [B,,D]4 [B,,D]2 | [B,,D]6 | %24
 [E,E]2 [E,C]2 [E,=A,]2 | [E,B,]4 [E,B,]2 | (_D2 C2) [E,_C]2 | [E,B,]4 z2 | %28
 [A,C]2 [F,C]2 [A,,F,]2 | [B,,G,]4 [B,,B,]2 | [B,,B,]4 [B,,A,]2 | [E,G,]6 |] %32
V:4
 x6 | x6 | x6 | x6 | x6 | A,4 x2 | x6 | x6 | x6 | x6 | x6 | x6 | x6 | x6 | x6 | x6 || x6 | x6 | %18
 B,4 x2 | x6 | x6 | x6 | x6 | x6 | x6 | x6 | E,4 x2 | x6 | x6 | x6 | x6 | x6 |] %32

